dist/svgs/devui-icons/op/bulk-edit.svg

<?xml version="1.0" encoding="UTF-8"?>
<svg width="16px" height="16px" viewBox="0 0 16 16" version="1.1" xmlns="http://www.w3.org/2000/svg" xmlns:xlink="http://www.w3.org/1999/xlink">
    <title>操作/bulk edit</title>
    <desc>Created with Sketch.</desc>
    <g id="操作/bulk-edit" stroke="none" stroke-width="1" fill="none" fill-rule="evenodd">
        <path d="M5,5 L10,5 C10.5522847,5 11,5.44771525 11,6 L11,11 L12,11 L12,4 L5,4 L5,5 Z M11,12 L11,13 C11,13.5522847 10.5522847,14 10,14 L3,14 C2.44771525,14 2,13.5522847 2,13 L2,6 C2,5.44771525 2.44771525,5 3,5 L4,5 L4,4 C4,3.44771525 4.44771525,3 5,3 L6,3 L6,2 C6,1.44771525 6.44771525,1 7,1 L14,1 C14.5522847,1 15,1.44771525 15,2 L15,9 C15,9.55228475 14.5522847,10 14,10 L13,10 L13,11 C13,11.5522847 12.5522847,12 12,12 L11,12 Z M13,9 L14,9 L14,2 L7,2 L7,3 L12,3 C12.5522847,3 13,3.44771525 13,4 L13,9 Z M4.90809507,11.5879844 C5.03616258,11.7036474 5.12156602,11.7928932 5.2931511,11.7928932 C5.46473619,11.7928932 5.57790735,11.7036474 5.69682836,11.5879844 C5.77610903,11.5108757 7.00815939,10.2660622 9.39297944,7.85354403 C9.58652542,7.65799306 9.58571338,7.34281481 9.38934518,7.14644661 C9.19408303,6.95118446 8.87750054,6.95118446 8.6822384,7.14644661 L5.26802484,10.5606602 L3.85381127,9.14644661 C3.65854913,8.95118446 3.34196664,8.95118446 3.14618873,9.1464468 C2.95106911,9.34185137 2.95130011,9.65843377 3.14670468,9.85355339 C4.2355866,10.932732 4.82271673,11.5108757 4.90809507,11.5879844 Z" id="形状" fill="#293040"></path>
    </g>
</svg>

<svg xmlns="http://www.w3.org/2000/svg" viewBox="0 0 16 16"><path fill-rule="evenodd" d="M5 5h5a1 1 0 011 1v5h1V4H5v1zm6 7v1a1 1 0 01-1 1H3a1 1 0 01-1-1V6a1 1 0 011-1h1V4a1 1 0 011-1h1V2a1 1 0 011-1h7a1 1 0 011 1v7a1 1 0 01-1 1h-1v1a1 1 0 01-1 1h-1zm2-3h1V2H7v1h5a1 1 0 011 1v5zm-8.092 2.588c.128.116.214.205.385.205.172 0 .285-.09.404-.205.08-.077 1.311-1.322 3.696-3.734a.5.5 0 00-.71-.708l-3.415 3.415-1.414-1.415a.5.5 0 00-.707.708 167.282 167.282 0 001.761 1.734z"/></svg>
